X:12
T:Miss Laura Andrew
M:C
L:1/8
C: J. Scott Skinner
R: Pastoral, slow strathspey
Z: Jason R. Fruit <JasonFruit@gmail.com>
U: T=!tenuto!
K:E
"^Slowly and sweetly."B | {d}[ee]2 (g/f/).e/.d/ {d}e.TE.TG.TB | cA BG {G}!>!A>F .D.B | {d}[ee]2 (g/f/).e/.d/ {d}e.TE.TG.TB |
c/B/A/G/ {EG}F>E (E2TE) :| g/a/ | !>!b>g eb gb (e!0!e') | !>!f>d .B.f .d.f (B!0!a) |
{ga}!>!b>g eb gb (e!0!e') | {A}c'/b/a/g/ {eg}!>!f>>e (e2 Te).g/.a/ | !>!b>g eb gb e!0!e' |
!>!f>d Bf dfBf | {d}[ee]2 (g/f/).e/.d/ {d}e.TE.TG.TB | {A,E}c/B/A/G/ {EG}F>>E (E2 TE) |]

